-----BEGIN PGP PUBLIC KEY BLOCK-----

mQINBGpyfBUBEACecKG97g/upQdM4rMvryK8PIG60HHcU1tDjQMk/yhNVOAAkYNg
0P40Hba2RrCgwhiEqVBysYtlSyYRCQ+mDcKWfCcFJqWRIp21tPbIt7lQj98Ie5h0
DAxwGJGgWphQekYGTxdSEUo0joPtZfDnRykI1mrzvhkf58GXa6mT5vlUVZvInLHI
ZLyz2JUfmgGpax9+DOA8xUC5bTQNh35Ncj48z+9guL77WavJ7d4zqb3x2G5Loazj
FdHErFax8QBqBkUjLOxYODGsFr4sExWqSPdKHAqW2O/QYgfhCYygzkVZJGSAbZZ/
VjtaHfMVGjw7sMZlelpWITAIYDi6g53O8vnRKZWuPfJfeviv7Ht18vuR1CcxmxRQ
1iRPVBThc0uYIFjBkhVx82luz0EEUG08+sC1LRSTaDRpVCbbjqRiocCiwSmPUsqw
r8Oeokxk+e/3xF1IVNLHGsoauN8tNp4XjpkphiWjABZ07HBSjs9bWdxP6aYhLTzS
8SMH0uLsj0psg8+07KzdZiattm3mtx3SK2KX4UVmyl5ZNU0kEpaCWbsBntiBu7/4
EHoqdAEsYBSnDeQvVAJLKPApaM45rl2uQKRK002NE+OJIaNf5K/HY5oOlQO5aQUF
HKjunWcSmpRZ6X2pFDkaYQro+B4YDvd/NG0cxZEFZIyp0+ESRYyGYyz2NwARAQAB
tCdXZW5kZXIgQVBUIFJlcG9zaXRvcnkgPHdlYkBiYXJ0d2VsbC5ydT6JAk4EEwEI
ADgWIQQVFogJ2O+dxp2muHbCHQHERlVaiQUCanJ8FQIbAwULCQgHAgYVCgkICwIE
FgIDAQIeAQIXgAAKCRDCHQHERlVaif5QD/4l49uFleLG18efCEj9WnOq5I8E10Ag
jINdR78/lb1a711oyRLP6q+4yE6if2TDY8fhuJ/ceCsUPC4y0XvPfm/85jNA0EC5
iqMUe6ZeY1DVlM+lbh4kqbGJX5ud4RUog43GKNUt7y3nnFD8k/FZy+WUutZG8/fL
r3iWcsPkQOnnMqUmnTeiTgTYkALoYGOKO22DSb0/RUoglRFVkBycvA/VlvW3SUDn
6HfDKM1oCUjzN59Dn+AqbKujUtQgErxCN4AbW9TK/+8hDb3TkQIsQKHiu/mjdleQ
vRwkCYBj+86JaO/nhhtRJhmLdvWQhjBDHKp+xVOG0aKO1ggX6MDMuwwuek16HwXC
5I0GHpJU42uGaKIzDNQe7vmNvuI7Z9kTnqLL7HSqQ+rNHDq7lgNm9EhKpvK4I2Kc
T/m8dXzYIwTEcXCFW9gOGIvBIxLtACakrl7qrXQ9Jryo2W8l1Lcm2ep20Q0Sesfn
xlB3hpe3a5AjbrUEjFQes+RoNN/JNj2bwvfRYpyT0OKc5DYv5a8FdPslcaxBJhkW
2ckKDtmjkSytQvXhhq5k2xyR/NW9ponajFC/i7yrdYyIuPV7Il7LQnrFkV1c82Od
ESlvLfKSJoDK4sGky3Od9y2Slgs6ofcXUbcDWnshMbvrIyl75c2puZkEgw0Fq24A
XuXmZnTsgdjSB7kCDQRqcnwVARAA7YojkBZ7C49dq9aKXp/Z82hSTM+E6xLgCbZ/
U3SzNEP0X/M/dH+pj3j/QXZJdvMiJfWpWnEg7ljKa9WTC4S5RcIe3UdYBbROAZuX
OnpQITZ/zkAa7TdbnAsn7CoF6C7aqpHVli2tXj8CK4xtHsjmAdvZC53u8ITQndbs
qIQAySVicPFSjmFzKmGdhzPwxglsjsJn7qxsBM7Qn2+RRqhDQfqO+bBRtwSNZngF
+uIZJWKRNQpye88ZiZUoO6UCBSM6xCjiOYZ1im+Z4RTr4qhggJ3KPH5VFpuwvbHz
wbND3Kv4MLU7rXYAVK1yXuD+yDodUDTkKirkyUne8NsJeu/yIdtnOB8dBPgTM2W+
FBf+YCJ90uoP+caEMP8Gaq1JbrXnTqKam3nLQ6rIL0+8yru62105rGJs6UmsdB8Z
Gmeh9kaVUjzpHMtK/rzT+r/peXx14w9cfVFewWvxPKVHJtM0zRlSaZ/tNdUUcIrR
UdUPILhCv/DA1k1XhsmgYPUCwRVqb3R0kdTtxkYd4kczwQY04cFKSnhr5LmxM+Ku
gTB/d+p1q8FAhamB7AawGSdOfsvyQaHaZgbylPZpgNFdpm/fkBLabV+svX23SqN0
bm+QYrn4U/miPWIw07+adiKpecj8lEulJszkpOaq09fSDDcAb90YbBbU9Zds3ldD
yJGJVBsAEQEAAYkCNgQYAQgAIBYhBBUWiAnY753Gnaa4dsIdAcRGVVqJBQJqcnwV
AhsMAAoJEMIdAcRGVVqJNgQP/RErDiI/H0GYIKf20fOhkJ3oL3bSOoMbCz6pRbT2
we6wLn1Mvu26Uo/IMQlweBGiBu8qGxHxnaznXO9ZE1933waVnxBK2ipHrYmXQKHB
/QxiWbiEKtfxhJameeK3hTqv0X+zhkkXNGAyuKGZd1HsbfFJ61RXPmJljbT/owaQ
AWUYHezmFIW7+B0ZEQYGxpeS7EOsYuoze44Jks/QfU1OCHQpn/16bLU7X6bRcKAJ
8Y2Wi2z+sSab1hI/0L1irYrl9qmuebUGHMwxQOgeuAlD6TRW2jC+Zw6YSoolASE6
RGLUT0vh2Aoyi1s8aDKA6wK4uvGjeVLvPA2P/q3nYiHZsU5xYniCekCsYfT832RJ
fHiLibM03WW3/IvebW4+BNVwp8Lqx8SSY61ezNRvcRdJl7/mPqiv1DxRXOwvnqRB
fYUCPij2e7f8nZNITzvkMd52kI5bhnJz2enX9hmLbTynIA5aibqn2OlCaEy4/0DW
wa5DiBd/DMwhrlK943j+Y4uQO9P0vTC2eaKaYadLh2JPFpCKwZuC00HYS3m35DZF
SFNAhRrEblBwcaVOQ4Mqqn/3XKaL5uxxwfn6rPN+z3pxxmk/k5mbkLbq4ha61MN3
unULqUP4vSsVwsgh32LP76jmA8VR+TBoyCTp24GqOZU3+v8cVglGXucBlI1HAS7K
6TcP
=m9+4
-----END PGP PUBLIC KEY BLOCK-----
